hosted/assets/icon/widgets/dark-mode/address-autocompletion.svg

<svg width="50" height="50" viewBox="0 0 50 50" fill="none" xmlns="http://www.w3.org/2000/svg">
<path fill-rule="evenodd" clip-rule="evenodd" d="M49 27H1V46H49V27ZM10 41L7 37.5V35L10 32.5L13.5 35L13 37.5L10 41Z" fill="#78768B"/>
<path d="M2 2C0.906937 2 0 2.90694 0 4V22C0 23.0931 0.906937 24 2 24H48C49.0931 24 50 23.0931 50 22V4C50 2.90694 49.0931 2 48 2H2ZM2 4H48V22H2V4ZM8 14C7.46957 14 6.96086 14.2107 6.58579 14.5858C6.21071 14.9609 6 15.4696 6 16C6 16.5304 6.21071 17.0391 6.58579 17.4142C6.96086 17.7893 7.46957 18 8 18C8.53043 18 9.03914 17.7893 9.41421 17.4142C9.78929 17.0391 10 16.5304 10 16C10 15.4696 9.78929 14.9609 9.41421 14.5858C9.03914 14.2107 8.53043 14 8 14ZM16 14C15.4696 14 14.9609 14.2107 14.5858 14.5858C14.2107 14.9609 14 15.4696 14 16C14 16.5304 14.2107 17.0391 14.5858 17.4142C14.9609 17.7893 15.4696 18 16 18C16.5304 18 17.0391 17.7893 17.4142 17.4142C17.7893 17.0391 18 16.5304 18 16C18 15.4696 17.7893 14.9609 17.4142 14.5858C17.0391 14.2107 16.5304 14 16 14ZM24 14C23.4696 14 22.9609 14.2107 22.5858 14.5858C22.2107 14.9609 22 15.4696 22 16C22 16.5304 22.2107 17.0391 22.5858 17.4142C22.9609 17.7893 23.4696 18 24 18C24.5304 18 25.0391 17.7893 25.4142 17.4142C25.7893 17.0391 26 16.5304 26 16C26 15.4696 25.7893 14.9609 25.4142 14.5858C25.0391 14.2107 24.5304 14 24 14Z" fill="white"/>
<path d="M2 26C0.906937 26 0 26.9069 0 28V46C0 47.0931 0.906937 48 2 48H48C49.0931 48 50 47.0931 50 46V28C50 26.9069 49.0931 26 48 26H2ZM2 28H48V46H2V28Z" fill="white"/>
<rect x="19" y="36" width="22" height="2" rx="1" fill="white"/>
<path d="M10.0912 37.3211C10.8101 37.3211 11.3929 36.746 11.3929 36.0367C11.3929 35.3273 10.8101 34.7523 10.0912 34.7523C9.37232 34.7523 8.78955 35.3273 8.78955 36.0367C8.78955 36.746 9.37232 37.3211 10.0912 37.3211Z" fill="white"/>
<path d="M10.0909 32C7.76653 32 6 33.7431 6 36.1284C6 37.7798 7.25517 39.6147 9.85847 41.8165L10.0909 42L10.3233 41.8165C12.9267 39.6606 14.1818 37.7798 14.1818 36.1284C14.1818 33.789 12.4153 32 10.0909 32ZM10.0909 39.844C8.09194 37.9633 7.67355 36.7706 7.67355 36.1284C7.67355 34.7064 8.69628 33.6514 10.0909 33.6514C11.4855 33.6514 12.5083 34.7064 12.5083 36.1743C12.5083 36.8165 12.0899 37.9633 10.0909 39.844Z" fill="white"/>
</svg>

<svg width="50" height="50" fill="none" xmlns="http://www.w3.org/2000/svg"><path fill-rule="evenodd" clip-rule="evenodd" d="M49 27H1v19h48V27zM10 41l-3-3.5V35l3-2.5 3.5 2.5-.5 2.5-3 3.5z" fill="#78768B"/><path d="M2 2C.907 2 0 2.907 0 4v18c0 1.093.907 2 2 2h46c1.093 0 2-.907 2-2V4c0-1.093-.907-2-2-2H2zm0 2h46v18H2V4zm6 10a2 2 0 100 4 2 2 0 000-4zm8 0a2 2 0 100 4 2 2 0 000-4zm8 0a2 2 0 100 4 2 2 0 000-4zM2 26c-1.093 0-2 .907-2 2v18c0 1.093.907 2 2 2h46c1.093 0 2-.907 2-2V28c0-1.093-.907-2-2-2H2zm0 2h46v18H2V28z" fill="#fff"/><rect x="19" y="36" width="22" height="2" rx="1" fill="#fff"/><path d="M10.091 37.321c.72 0 1.302-.575 1.302-1.284 0-.71-.583-1.285-1.302-1.285-.719 0-1.301.575-1.301 1.285 0 .709.582 1.284 1.301 1.284z" fill="#fff"/><path d="M10.09 32C7.768 32 6 33.743 6 36.128c0 1.652 1.255 3.487 3.858 5.688l.233.184.232-.184c2.604-2.155 3.859-4.036 3.859-5.688 0-2.339-1.767-4.128-4.091-4.128zm0 7.844c-1.998-1.88-2.416-3.073-2.416-3.716 0-1.422 1.022-2.477 2.417-2.477 1.395 0 2.417 1.055 2.417 2.523 0 .642-.418 1.79-2.417 3.67z" fill="#fff"/></svg>
